static/img/cover-sdk.svg

<svg width="40" height="40" viewBox="0 0 40 40" fill="none" xmlns="http://www.w3.org/2000/svg">
<g clip-path="url(#clip0_2929_40)">
<path d="M36 0H4C1.79086 0 0 1.79086 0 4V36C0 38.2091 1.79086 40 4 40H36C38.2091 40 40 38.2091 40 36V4C40 1.79086 38.2091 0 36 0Z" fill="#7A438E"/>
<path d="M36 0H4C1.79086 0 0 1.79086 0 4V36C0 38.2091 1.79086 40 4 40H36C38.2091 40 40 38.2091 40 36V4C40 1.79086 38.2091 0 36 0Z" fill="white" fill-opacity="0.01"/>
<path d="M13.3333 26.6667C12.875 26.6667 12.4826 26.5035 12.1562 26.1771C11.8299 25.8507 11.6667 25.4583 11.6667 25V15C11.6667 14.5417 11.8299 14.1493 12.1562 13.8229C12.4826 13.4965 12.875 13.3333 13.3333 13.3333H26.6667C27.125 13.3333 27.5174 13.4965 27.8437 13.8229C28.1701 14.1493 28.3333 14.5417 28.3333 15V25C28.3333 25.4583 28.1701 25.8507 27.8437 26.1771C27.5174 26.5035 27.125 26.6667 26.6667 26.6667H13.3333ZM13.3333 25H26.6667V16.6667H13.3333V25ZM16.25 24.1667L15.0833 23L17.2292 20.8333L15.0625 18.6667L16.25 17.5L19.5833 20.8333L16.25 24.1667ZM20 24.1667V22.5H25V24.1667H20Z" fill="white"/>
</g>
<defs>
<clipPath id="clip0_2929_40">
<rect width="40" height="40" fill="white"/>
</clipPath>
</defs>
</svg>

<svg xmlns="http://www.w3.org/2000/svg" width="40" height="40" fill="none" viewBox="0 0 40 40"><g clip-path="url(#a)"><path fill="#7a438e" d="M36 0H4a4 4 0 0 0-4 4v32a4 4 0 0 0 4 4h32a4 4 0 0 0 4-4V4a4 4 0 0 0-4-4"/><path fill="#fff" fill-opacity=".01" d="M36 0H4a4 4 0 0 0-4 4v32a4 4 0 0 0 4 4h32a4 4 0 0 0 4-4V4a4 4 0 0 0-4-4"/><path fill="#fff" d="M13.333 26.667q-.687 0-1.177-.49a1.6 1.6 0 0 1-.49-1.177V15q0-.687.49-1.177t1.177-.49h13.334q.687 0 1.177.49t.49 1.177v10q0 .687-.49 1.177t-1.177.49zm0-1.667h13.334v-8.333H13.333zm2.917-.833L15.083 23l2.146-2.167-2.166-2.166L16.25 17.5l3.333 3.333zm3.75 0V22.5h5v1.667z"/></g><defs><clipPath id="a"><path fill="#fff" d="M0 0h40v40H0z"/></clipPath></defs></svg>
